X:1
T:A Blessing in Prayer
T:William James Kirkpatrick
T:A Blessing in Prayer
T:Public Domain
T:Public Domain
C:William James Kirkpatrick
Z:Public Domain
%%score ( 1 2 ) 3
L:1/8
M:4/4
K:D
V:1 treble 
V:2 treble 
V:3 bass 
V:1
 D[DE] | [DF]2 [FA]2 [FA]2 [DF][CE] | D2 D2 [DF]2 [DF][DF] | [CE]2 [EG]2 [EG]2 [DF][CE] | %4
w: 1.~There is|sweet rest, at the Mas-|ter’s feet, There is fa-|at the mer- cy seat,|
w: 2.~There is|to help in our time|of need, For our Friend|is a Friend, in- deed;|
w: 3.~When our|are glad with the joy|of life, When our hearts|with its ills and strife,|
w: 4.~There is|fect peace tho’ the wild|waves roll, There are gifts|for the seek- ing soul,|
 [DF]2 [EG]2 [FA]2 [FA][FA] | [GB]2 [GB]2 [Bd]2 [Ac][GB] | [GB]2 [FA]2 [FA]2 D[CE] | %7
w: For a- ton- ing blood|has been sprink- led there;|There is al- ways a|
w: We may cast on Him|ev- ery grief and care;|There is al- ways a|
w: When the powers of sin|would the soul en- snare,|There is al- ways a|
w: Till we praise the Lord|in His home so fair,|There is al- ways a|
 [DF]2 [FA]>[GB] [FA] [DF]2 D | [DF][DF] [CE]2 D2 ||"^Refrain" [DF][EG] | %10
w: ing, a bless- ing in prayer.|||
w: ing, a bless- ing in prayer.|||
w: ing, a bless- ing in prayer.|||
w: ing, a bless- ing in prayer.|||
 [FA]<[FA] [FA]2 [Fd]2 [FA][FA] | [GB]2 [GB]2 [FA]2 [DF][DA] | [CA]2 [CG]2 [CG]2 [CA]>[CB] | %13
w: |||
w: |||
w: |||
w: |||
 [DA]2 [DF]2 [DF]2 [FA][FA] | [Fd]2 [Gc]2 [Ad]2 [Fd][Fd] | [Ge]2 [Fd]2 [FA]2 D[CE] | %16
w: |||
w: |||
w: |||
w: |||
 [DF]2 [FA]>[GB] [FA] [DF]2 D | [DF][DF] [CE]2 D2 |] %18
w: ||
w: ||
w: ||
w: ||
V:2
 D x | x8 | D2 D2 x4 | x8 | x8 | x8 | x6 D x | x7 D | x4 D2 || x2 | x8 | x8 | x8 | x8 | x8 | %15
w: rest,||vor now||||bless-|||||||||
w: grace||a- bove||||bless-|||||||||
w: songs||are sad||||bless-|||||||||
w: per-||of love||||bless-|||||||||
 x6 D x | x7 D | x4 D2 |] %18
w: |||
w: |||
w: |||
w: |||
V:3
 [D,F,][D,G,] | [D,A,]2 [D,D]2 [D,D]2 [D,A,][D,G,] | [D,F,]2 [D,F,]2 [D,A,]2 [D,A,][D,A,] | %3
w: ~ ~|~ ~ ~ ~ ~|~ ~ ~ ~ ~|
 [A,,A,]2 [A,,A,]2 [A,,A,]2 [A,,A,][A,,A,] | [D,A,]2 [D,A,]2 [D,D]2 [D,D][D,D] | %5
w: ~ ~ ~ ~ ~|~ ~ ~ ~ ~|
 [G,D]2 [G,D]2 [G,D]2 [G,D][G,D] | [D,D]2 [D,D]2 [D,D]2 [F,A,][E,A,] | %7
w: ~ ~ ~ ~ ~|~ ~ ~ ~ ~|
 [D,A,]2 [D,D]>[D,D] [D,D] [D,A,]2 [D,F,] | [A,,A,][A,,A,] [A,,G,]2 [D,F,]2 || [D,A,][D,A,] | %10
w: ~ ~ ~ ~ ~ ~|~ ~ ~ ~|There’s a|
 [D,D]<[D,D] [D,D]2 [D,A,]2 [D,D][D,D] | [G,D]2 [G,D]2 [D,D]2 [D,A,][F,A,] | %12
w: bless- ing in prayer, in be-|liev- ing prayer, When our|
 [E,A,]2 [E,A,]2 [E,A,]2 [A,,G,]>[A,,G,] | [D,F,]2 [D,A,]2 [D,A,]2 [D,A,][D,A,] | %14
w: Sav- ior’s name to the|throne we bear; Then a|
 [D,A,]2 [E,A,]2 [F,A,]2 [D,A,][D,A,] | [D,_B,]2 [D,A,]2 [D,D]2 [F,A,][E,A,] | %16
w: Fa- ther’s love will re-|ceive us there; There is|
 [D,A,]2 [D,D]>[D,D] [D,D] [D,A,]2 [D,F,] | [A,,A,][A,,A,] [A,,G,]2 [D,F,]2 |] %18
w: al- ways a bless- ing, a|bless- ing in prayer.|

